tools/download-figma-icons/icons/outlined-large/lock.svg

<svg width="64" height="64" viewBox="0 0 64 64" fill="none" xmlns="http://www.w3.org/2000/svg"><path d="M48.5 25H45v-8.47C45 8.94 39.29 3 32 3S19 8.94 19 16.53V25h-3.5a5.51 5.51 0 0 0-5.5 5.5v25c0 3.03 2.47 5.5 5.5 5.5h33c3.03 0 5.5-2.47 5.5-5.5v-25c0-3.03-2.47-5.5-5.5-5.5ZM22 16.53C22 10.63 26.39 6 32 6s10 4.62 10 10.53V25H22v-8.47ZM51 55.5a2.5 2.5 0 0 1-2.5 2.5h-33a2.5 2.5 0 0 1-2.5-2.5v-25a2.5 2.5 0 0 1 2.5-2.5h33a2.5 2.5 0 0 1 2.5 2.5v25Z" fill="currentColor"/><path d="M32 33.93c-2.76 0-5 2.24-5 5 0 2.23 1.48 4.1 3.5 4.74v5.83c0 .83.67 1.5 1.5 1.5s1.5-.67 1.5-1.5v-5.83c2.02-.64 3.5-2.51 3.5-4.74 0-2.76-2.24-5-5-5Zm0 7c-1.1 0-2-.9-2-2s.9-2 2-2 2 .9 2 2-.9 2-2 2Z" fill="currentColor"/></svg>

<svg width="64" height="64" viewBox="0 0 64 64" fill="none" xmlns="http://www.w3.org/2000/svg">
<path d="M48.5 25H45V16.53C45 8.94 39.29 3 32 3C24.71 3 19 8.94 19 16.53V25H15.5C12.47 25 10 27.47 10 30.5V55.5C10 58.53 12.47 61 15.5 61H48.5C51.53 61 54 58.53 54 55.5V30.5C54 27.47 51.53 25 48.5 25ZM22 16.53C22 10.63 26.39 6 32 6C37.61 6 42 10.62 42 16.53V25H22V16.53ZM51 55.5C51 56.88 49.88 58 48.5 58H15.5C14.12 58 13 56.88 13 55.5V30.5C13 29.12 14.12 28 15.5 28H48.5C49.88 28 51 29.12 51 30.5V55.5Z" fill="black"/>
<path d="M32 33.93C29.24 33.93 27 36.17 27 38.93C27 41.16 28.48 43.03 30.5 43.67V49.5C30.5 50.33 31.17 51 32 51C32.83 51 33.5 50.33 33.5 49.5V43.67C35.52 43.03 37 41.16 37 38.93C37 36.17 34.76 33.93 32 33.93ZM32 40.93C30.9 40.93 30 40.03 30 38.93C30 37.83 30.9 36.93 32 36.93C33.1 36.93 34 37.83 34 38.93C34 40.03 33.1 40.93 32 40.93Z" fill="black"/>
</svg>
